app/dist/common/images/eqtl-para-on.svg

<svg fill="none" height="18" width="18" xmlns="http://www.w3.org/2000/svg"><path d="m0 0h18v18h-18z" fill="#f0f3fa"/><path d="m12 12.107c0 1.3-1 1.893-3 1.893s-3-.59-3-1.982v-2.305c.821-.128 2.541-.386 2.541-.386v2.76c0 .3.18.505.498.505.319 0 .438-.207.438-.505v-2.087h2.523z" fill="#6c6ea8"/><path clip-rule="evenodd" d="m12 8v-2.017c0-1.321-.934-1.98-2.961-1.982l-.015-.001c-1.972 0-3.024.7-3.024 2.072v2.783c-2.668.5-2.472.519-4 1.145 2.512-.657 3.234-.685 7.039-1.164 1.696-.222 4.944-.321 6.961-.496 0 0-1.074-.34-4-.34zm-3.452-2.085c0-.317.24-.483.49-.486h.007c.3 0 .437.167.437.486v1.691h-.934z" fill="#2f2e79" fill-rule="evenodd"/></svg>

<!-- by TradingView --><svg width="18" height="18" fill="none" xmlns="http://www.w3.org/2000/svg"><path fill="#F0F3FA" d="M0 0h18v18H0z"/><path d="M12 12.107C12 13.407 11 14 9 14s-3-.59-3-1.982V9.713c.821-.128 2.541-.386 2.541-.386v2.76c0 .3.18.505.498.505.319 0 .438-.207.438-.505V10H12v2.107Z" fill="#6C6EA8"/><path fill-rule="evenodd" clip-rule="evenodd" d="M12 8V5.983c0-1.321-.934-1.98-2.961-1.982L9.024 4C7.052 4 6 4.7 6 6.072v2.783c-2.668.5-2.472.519-4 1.145 2.512-.657 3.234-.685 7.039-1.164 1.696-.222 4.944-.321 6.961-.496 0 0-1.074-.34-4-.34ZM8.548 5.915c0-.317.24-.483.49-.486h.007c.3 0 .437.167.437.486v1.691h-.934V5.915Z" fill="#2F2E79"/></svg>
